images/icon-googleplus.svg

<svg height="16" viewBox="0 0 18 16" width="18" xmlns="http://www.w3.org/2000/svg"><g fill="#00586f" fill-rule="evenodd"><path d="m7.69442587 6.94322747v2.61105524h4.31638673c-.1733729 1.12094529-1.3032858 3.28362239-4.31638673 3.28362239-2.5961093 0-4.71693779-2.1537095-4.71693779-4.8066134 0-2.65290386 2.12082849-4.80661342 4.71693779-4.80661342 1.48114238 0 2.46607963.63071856 3.03103603 1.17176148l2.064034-1.98930424c-1.3271992-1.23752361-3.04448744-1.98930425-5.09507003-1.98930425-4.20877593.00448378-7.60897665 3.4046845-7.60897665 7.61346043 0 4.2087759 3.40020072 7.6089767 7.60897665 7.6089767 4.38962173 0 7.30557413-3.0878307 7.30557413-7.43560382 0-.49919431-.0553-.8833049-.1210621-1.26143711h-7.18301743z"/><path d="m18.0249023 3.14824081h-1.6818237v-1.68182373h-1.6818237v1.68182373h-1.6818237v1.68182373h1.6818237v1.68182374h1.6818237v-1.68182374h1.6818237z"/></g></svg>

<?xml version="1.0" encoding="UTF-8" standalone="no"?>
<svg width="18px" height="16px" viewBox="0 0 18 16" version="1.1" xmlns="http://www.w3.org/2000/svg" xmlns:xlink="http://www.w3.org/1999/xlink">
    <!-- Generator: Sketch 3.8.3 (29802) - http://www.bohemiancoding.com/sketch -->
    <title>icon-googleplus</title>
    <desc>Created with Sketch.</desc>
    <defs></defs>
    <g id="Symbols" stroke="none" stroke-width="1" fill="none" fill-rule="evenodd">
        <g id="icon-googleplus" fill="#00586F">
            <path d="M7.69442587,6.94322747 L7.69442587,9.55428271 L12.0108126,9.55428271 C11.8374397,10.675228 10.7075268,12.8379051 7.69442587,12.8379051 C5.09831657,12.8379051 2.97748808,10.6841956 2.97748808,8.0312917 C2.97748808,5.37838784 5.09831657,3.22467828 7.69442587,3.22467828 C9.17556825,3.22467828 10.1605055,3.85539684 10.7254619,4.39643976 L12.7894959,2.40713552 C11.4622967,1.16961191 9.74500846,0.417831268 7.69442587,0.417831268 C3.48564994,0.422315049 0.0854492188,3.82251577 0.0854492188,8.0312917 C0.0854492188,12.2400676 3.48564994,15.6402684 7.69442587,15.6402684 C12.0840476,15.6402684 15,12.5524377 15,8.20466458 C15,7.70547027 14.9447,7.32135968 14.8789379,6.94322747 L7.69592047,6.94322747 L7.69442587,6.94322747 Z" id="icon-googleplus-2"></path>
            <polygon id="icon-googleplus-1" points="18.0249023 3.14824081 16.3430786 3.14824081 16.3430786 1.46641708 14.6612549 1.46641708 14.6612549 3.14824081 12.9794312 3.14824081 12.9794312 4.83006454 14.6612549 4.83006454 14.6612549 6.51188828 16.3430786 6.51188828 16.3430786 4.83006454 18.0249023 4.83006454"></polygon>
        </g>
    </g>
</svg>
